!!!COM: Bach, Johann Sebastian
!!!CDT: 1685/02/21/-1750/07/28/
!!!OTL@@DE:	Ermuntre dich, mein schwacher Geist
!!!SCT: BWV 248/12
!!!PC#:	9
!!!AGN: chorale
**harm	**kern	**kern	**kern	**kern
*	*ICvox	*ICvox	*ICvox	*ICvox
*	*Ibass	*Itenor	*Ialto	*Isoprn
*	*I"Bass	*I"Tenor	*I"Alto	*I"Soprano
*>[A,A,B]	*>[A,A,B]	*>[A,A,B]	*>[A,A,B]	*>[A,A,B]
*>norep[A,B]	*>norep[A,B]	*>norep[A,B]	*>norep[A,B]	*>norep[A,B]
*>A	*>A	*>A	*>A	*>A
*	*	*oclefC4	*oclefC3	*oclefC1
*	*clefF4	*clefGv2	*clefG2	*clefG2
*k[f#]	*k[f#]	*k[f#]	*k[f#]	*k[f#]
*G:	*G:	*G:	*G:	*G:
*M4/4	*M4/4	*M4/4	*M4/4	*M4/4
*met(c)	*met(c)	*met(c)	*met(c)	*met(c)
*MM100	*MM100	*MM100	*MM100	*MM100
I	4G	4B	4d	4g
=1	=1	=1	=1	=1
vi	4E	4B	4e	4g
V7	4D	4c	4f#	4a
I	8GL	8BL	8dL	8bL
D:V2	8GJ	8AJ	8eJ	8cc#J
I6	4F#	4A	4f#	4dd
=2	=2	=2	=2	=2
V(64)	4A	4A	4e	4cc#
V7	4AA	4A	4g	4cc#
I;	4D;	4A;	4f#;	4dd;
G:V65/vi	4D#	4A	4f#	4b
=3	=3	=3	=3	=3
IV6	8EL	8GL	8eL	8ccnXL
vii%7	8F#J	8AJ	8eJ	8ccnJ
I	8GL	8BL	8dL	8bL
IV7	8CJ	8cJ	8eJ	8bJ
V2	4C	4dnX	4f#	4a
I	4GG	4d	4g	4b
=4	=4	=4	=4	=4
V7	2DD	2c	2f#	2a
I;	4GG;	4B;	4d;	4g;
*>B	*>B	*>B	*>B	*>B
V	4D	4d	4f#	4a
=5	=5	=5	=5	=5
V	4d	4f#	4a	4a
a:viio6	4B	4d	4g#	4b
i	4A	4e	4a	4cc
viio7/V	4D#	4f#	4a	4cc
=6	=6	=6	=6	=6
V	4E	4B	4g#	4b
V7	4EE	4d	4g#	4b
i;	4AA;	4c;	4e;	4a;
e:i	8EL	8GnXL	8eL	8bL
V43	8F#J	8AJ	8d#J	8bJ
=7	=7	=7	=7	=7
i6	4G	4B	4e	4b
V65/iv	4G#	4d	4e	4b
iv	4A	4c	4e	4cc
viio7/V	4A#	4c#	4gnX	4ee
=8	=8	=8	=8	=8
V(64)	4B	4B	4g	4ee
V7	4BB	4B	4anX	4dd#
i;	4E;	4B;	4g;	4ee;
G:V	8DL	8dL	8aL	8ff#L
V2	8CJ	8dJ	8aJ	8ff#J
=9	=9	=9	=9	=9
I6	4BB	4d	4g	4gg
I	4GG	4g	4b	4b
IV65	8EEL	8GL	8bL	8ccL
viio	8FF#J	8AJ	8aJ	8ccJ
I	8GGL	8BL	8gL	8bL
vi	8EEJ	8BJ	8gJ	8bJ
=10	=10	=10	=10	=10
V65/V	4C#	4e	4g	4a
V7/V	4AA	4c#X	4g	4a
V;	4D;	4d;	4f#;	4a;
I6	4BB	4d	4g	4dd
=11	=11	=11	=11	=11
IV	4CnX	4cn	4e	4ee
V7	4D	4c	4f#	4dd
IV65	8EL	8BL	8gL	8ccL
viio	8F#J	8AJ	8aJ	8ccJ
I	4G	4G	4d	4b
=12	=12	=12	=12	=12
ii65	4C	4G	4e	4a
V	4D	4F#	4d	4a
I;	4GG;	4B;	4d;	4g;
==	==	==	==	==
*-	*-	*-	*-	*-
!!!YOR1: 371 vierstimmige Choralges&auml;nge von Johann Sebastian Bach, 
!!!YOR2: 4th ed. by Alfred D&ouml;rffel (Leipzig: Breitkopf und H&auml;rtel, 
!!!YOR2: c.1875). 178 pp. Plate "V.A.10".  reprint: J.S. Bach, 371 Four-Part 
!!!YOR4: Chorales (New York: Associated Music Publishers, Inc., c.1940).
!!!SMS: B&H, 4th ed, Alfred D&ouml;rffel, c.1875, plate V.A.10
!!!EED:  Craig Stuart Sapp
!!!EEV:  2009/05/22
